src/pos-icons/format-text-wrapping-clip.svg

<svg height="24" viewBox="0 0 24 24" width="24" xmlns="http://www.w3.org/2000/svg"><path d="m7 21h-2v-18h2zm10-18v8h-8v2h8v8h2v-18z"/></svg>

<?xml version="1.0" encoding="UTF-8"?><!DOCTYPE svg PUBLIC "-//W3C//DTD SVG 1.1//EN" "http://www.w3.org/Graphics/SVG/1.1/DTD/svg11.dtd"><svg xmlns="http://www.w3.org/2000/svg" xmlns:xlink="http://www.w3.org/1999/xlink" version="1.1" id="mdi-format-text-wrapping-clip" width="24" height="24" viewBox="0 0 24 24"><path d="M7,21H5V3H7V21M17,3V11H9V13H17V21H19V3H17Z" /></svg>
